X:183 
T:Silver Grove (hornpipe) *, The  
B:CRE4.223
S:Grier MS (gan ainm)
F:file ID: cre.4/183silver
L:1/8
Q:150
M:4/4
R:hornpipe
K:D
FG|AD D2 ADBD|ADFE D3f|gfed cdef|e2 E2 E2 FG|
AD D2 ADBD|ADFE D3f|gfed cdef|d2 D2 D2:|
|:de|f2 ag fdBd|edBc dcBA|Bdef gfed|cdef e2 de|
[1 f2 ag fgaf|edBc dcBA|Bdef gedc|d2 D2 D2 :|
[2 f2 df e2 ce|d2Bc dcBA|Bdef gedc|d2 dc d2 ||
|:Bc|d2d2 DEFG|AGFE D3c|dcBA gfed|cdef e3c|
dcBA gfed|gfga bgab|afed cdeg|1 afce d2:|2 afce H[d4D4] ||

%%%

